assets/images/sprites/vampire.svg

<svg enable-background="new 0 0 314.5 314" viewBox="0 0 314.5 314" xmlns="http://www.w3.org/2000/svg"><path d="m0 0h140.9 173.6" fill="#5400e7"/><path d="m314.5 314h-188.4-126.1" fill="#5400e7"/><path d="m231.7 119.1v-47.4l-37.8-37.8h-120.5l19.3 19.2-30.8 30.8h28.4v35.1h-21v47.4l12.3 12.3h8.6v30.7l70.7 70.7 70.7-70.7v-30.7h8.6l12.3-12.3v-47.4h-20.9v.1zm-56.9 110.5-4.5-9.6h-7.4-6.2-7.4l-4.5 9.6-13.2-20.9h25.2 6.2 25z"/></svg>

<?xml version="1.0" encoding="utf-8"?>
<!-- Generator: Adobe Illustrator 25.2.0, SVG Export Plug-In . SVG Version: 6.00 Build 0)  -->
<svg version="1.1" id="Layer_1" xmlns="http://www.w3.org/2000/svg" xmlns:xlink="http://www.w3.org/1999/xlink" x="0px" y="0px"
	 viewBox="0 0 314.5 314" style="enable-background:new 0 0 314.5 314;" xml:space="preserve">
<style type="text/css">
	.st0{fill:#5400E7;}
</style>
<g id="aeb185af-abc3-4d29-985e-4961b12019ea">
	<g id="ee7f433f-5fc6-4db4-acb0-45285f089abd">
		<polyline class="st0" points="0,0 140.9,0 314.5,0 		"/>
		<polyline class="st0" points="314.5,314 126.1,314 0,314 		"/>
		<path d="M231.7,119.1V71.7l-37.8-37.8H73.4l19.3,19.2L61.9,83.9h28.4V119H69.3v47.4l12.3,12.3h8.6v30.7l70.7,70.7l70.7-70.7v-30.7
			h8.6l12.3-12.3V119h-20.9V119.1z M174.8,229.6l-4.5-9.6h-7.4h-6.2h-7.4l-4.5,9.6l-13.2-20.9h25.2h6.2H188L174.8,229.6z"/>
	</g>
</g>
</svg>
